X: 5
T: The Humours Of Bandon
R: jig
M: 6/8
L: 1/8
K: Gmaj
|: F |DGG GFG | A/B/AG FGA | BGG GFG | A/B/de fef |
d2 e c2 A | BAG FGA | BGA FDF | G3 G2 :|
|: c |dgg gfg | g/b/ag f2 a | g/a/gf d2 e | f/g/fd c2 e |
d/e/dc B2 d | c/d/cB G2 A | B/c/BG F2 A | G/A/GF D2 C |
DGG GFG | A/B/AG FGA | BGG GFG | A/B/de fef |
d2 e c2 A | BAG FGA | BGA FDF | G3 G2 :|


Tune 2193	Setting 15565

